X:018
T:Moderato TS.018
M:C
L:1/8
Q:1/4=120
S:Thomas Sands’ MS,1810,Lincolnshire
R:march
C:Prefixed as ‘No.6′ in MS
O:England;Lincolnshire
Z:vmp.Ruairidh Greig, 2011
K:C
[c3E3](e/d/) cGEC|e3(g/f/) ecGE|g2e/c/e/g/f2d/B/d/f/|ecge dBAG|
[c3E3]e/d/ cc “tr”c2|[d3G3](f/e/) dd “tr”d2|(3ece (3geg (3c’ge (3fdB|c2c>cc2″rest added”z2:|
|:(d3c/B//A//) .G.G.G.G|(g3f/e//d//) .c.c.c.c|.c’.c'(.c’b) .a.a(ag)|.f.e.d.c .B.A.G.F|
“_f”[c3E3]e/d/ cege|[d3G3]f/e/ dfaf|”tr added”(3ec’g {b}ag/f/e2″tr”d2|cc’gec2z2:|]

